X:332
T:Hole in the Hedge, The
R:jig
D:Martin Hayes: Under the Moon
Z:id:hn-jig-332
M:6/8
K:C
C2E EDE|GED E2D|C2E EDE|GEC D2E|
C2E EDE|GEG c2c|cde dcA|1 GEC D2E:|2 GEC D2C||
|:c2e dcA|GEG GAB|c2e dcA|GEC D2C|
c2e dcA|GEG GAB|cBc AcA|1 GEC D2C:|2 GEC D2E||

